;FLAVOR:Marlin
;TIME:23175
;Filament used: 16.3424m
;Layer height: 0.2
;MINX:47.836
;MINY:45.029
;MINZ:0.2
;MAXX:172.166
;MAXY:175.205
;MAXZ:33
;Generated with Cura_SteamEngine 5.4.0
M82 ;absolute extrusion mode
; Ender 3 Custom Start G-code
G92 E0 ; Reset Extruder
G28 ; Home all axes
M104 S175 ; Start heating up the nozzle most of the way
M190 S70 ; Start heating the bed, wait until target temperature reached
M109 S215 ; Finish heating the nozzle
G1 Z2.0 F3000 ; Move Z Axis up little to prevent scratching of Heat Bed
G1 X0.1 Y20 Z0.3 F5000.0 ; Move to start position
G1 X0.1 Y200.0 Z0.3 F1500.0 E15 ; Draw the first line
G1 X0.4 Y200.0 Z0.3 F5000.0 ; Move to side a little
G1 X0.4 Y20 Z0.3 F1500.0 E30 ; Draw the second line
G92 E0 ; Reset Extruder
G1 Z2.0 F3000 ; Move Z Axis up little to prevent scratching of Heat Bed
G1 X5 Y20 Z0.3 F5000.0 ; Move over to prevent blob squish
G92 E0
G92 E0
G1 F1500 E-6.5
;LAYER_COUNT:165
;LAYER:0
M107
G0 F6000 X69.263 Y50.259 Z0.2
;TYPE:SKIRT
G1 F1500 E0
G1 F1200 X70.05 Y49.379 E0.03927
G1 X70.546 Y48.885 E0.06255
G1 X71.247 Y48.248 E0.09405
G1 X72.42 Y47.393 E0.14233
G1 X73.015 Y47.019 E0.16571
G1 X73.836 Y46.552 E0.19712
G1 X75.023 Y46.029 E0.24026
G1 X75.702 Y45.783 E0.26428
G1 X76.083 Y45.658 E0.27762
G1 X76.952 Y45.413 E0.30765
G1 X78.287 Y45.179 E0.35273
G1 X78.962 Y45.104 E0.37532
G1 X80.033 Y45.039 E0.411
G1 X80.854 Y45.029 E0.43831
G1 X144.464 Y45.029 E2.55399
G1 X145.339 Y45.042 E2.5831
G1 X146.16 Y45.085 E2.61044
G1 X146.922 Y45.166 E2.63593
G1 X147.345 Y45.222 E2.65012
G1 X148.234 Y45.382 E2.68016
G1 X149.507 Y45.747 E2.72421
G1 X150.15 Y45.974 E2.74689
G1 X150.987 Y46.312 E2.77691
G1 X152.081 Y46.883 E2.81796
G1 X152.716 Y47.272 E2.84272
G1 X153.097 Y47.521 E2.85786
G1 X153.83 Y48.049 E2.88791
G1 X154.817 Y48.925 E2.9318
G1 X155.296 Y49.406 E2.95438
G1 X155.952 Y50.126 E2.98678
G1 X156.501 Y50.843 E3.01681
G1 X156.813 Y51.313 E3.03557
G1 X157.186 Y51.91 E3.05899
G1 X157.67 Y52.77 E3.09181
G1 X158.153 Y53.876 E3.13195
G1 X158.559 Y54.975 E3.17092
G1 X159.025 Y56.307 E3.21785
G1 X159.928 Y58.676 E3.30218
G1 X160.886 Y60.982 E3.38523
G1 X161.932 Y63.325 E3.47057
G1 X162.293 Y64.253 E3.50369
G1 X162.513 Y64.907 E3.52664
G1 X162.774 Y65.818 E3.55816
G1 X163.018 Y67.217 E3.60539
G1 X163.089 Y67.879 E3.62754
G1 X163.15 Y68.904 E3.66169
G1 X163.156 Y69.639 E3.68614
G1 X163.142 Y70.626 E3.71897
G1 X163.142 Y73.226 E3.80544
G1 X163.213 Y75.739 E3.88906
G1 X163.353 Y78.22 E3.97171
G1 X163.568 Y80.779 E4.05712
G1 X163.851 Y83.264 E4.14031
G1 X164.199 Y85.715 E4.22265
G1 X164.627 Y88.22 E4.30717
G1 X165.117 Y90.664 E4.39007
G1 X165.686 Y93.142 E4.47464
G1 X166.328 Y95.612 E4.55952
G1 X167.072 Y98.204 E4.64921
G1 X167.297 Y99.152 E4.68162
G1 X167.429 Y100.046 E4.71168
G1 X167.486 Y100.878 E4.73941
G1 X167.501 Y101.535 E4.76127
G1 X167.5 Y163.605 E6.82573
G1 X167.489 Y164.368 E6.85111
G1 X167.432 Y165.341 E6.88352
G1 X167.287 Y166.304 E6.91592
G1 X167.058 Y167.25 E6.94829
G1 X166.747 Y168.174 E6.98071
G1 X166.355 Y169.065 E7.01309
G1 X165.887 Y169.917 E7.04542
G1 X165.365 Y170.698 E7.07667
G1 X164.732 Y171.483 E7.11021
G1 X164.107 Y172.134 E7.14022
G1 X163.318 Y172.822 E7.17504
G1 X162.558 Y173.372 E7.20624
G1 X161.691 Y173.889 E7.23982
G1 X160.813 Y174.311 E7.27222
G1 X159.902 Y174.653 E7.30458
G1 X158.963 Y174.914 E7.337
G1 X157.997 Y175.092 E7.36967
G1 X156.846 Y175.19 E7.40809
G1 X156.171 Y175.205 E7.43054
G1 X64.065 Y175.204 E10.494
G1 X63.332 Y175.193 E10.51838
G1 X62.36 Y175.136 E10.55077
G1 X61.397 Y174.99 E10.58316
G1 X60.451 Y174.761 E10.61554
G1 X59.527 Y174.449 E10.64797
G1 X58.637 Y174.057 E10.68032
G1 X57.814 Y173.606 E10.71153
G1 X56.975 Y173.045 E10.7451
G1 X56.271 Y172.479 E10.77515
G1 X55.518 Y171.754 E10.80991
G1 X54.881 Y171.018 E10.84229
G1 X54.351 Y170.287 E10.87232
G1 X53.815 Y169.39 E10.90707
G1 X53.393 Y168.512 E10.93947
G1 X53.051 Y167.6 E10.97187
G1 X52.791 Y166.662 E11.00424
G1 X52.613 Y165.693 E11.03701
G1 X52.515 Y164.514 E11.07636
G1 X52.501 Y163.863 E11.09802
G1 X52.502 Y101.755 E13.16374
G1 X52.514 Y101.017 E13.18829
G1 X52.573 Y100.045 E13.22068
G1 X52.719 Y99.082 E13.25307
G1 X52.95 Y98.135 E13.28549
G1 X53.26 Y97.221 E13.31759
G1 X53.553 Y96.535 E13.3424
G1 X53.928 Y95.737 E13.37173
G1 X54.526 Y94.505 E13.41728
G1 X55.553 Y92.228 E13.50036
G1 X56.531 Y89.882 E13.5849
G1 X57.429 Y87.546 E13.66814
G1 X58.265 Y85.174 E13.75179
G1 X59.036 Y82.767 E13.83585
G1 X59.74 Y80.339 E13.91993
G1 X60.358 Y77.956 E14.00181
G1 X60.934 Y75.439 E14.08769
G1 X61.422 Y72.999 E14.17045
G1 X61.849 Y70.498 E14.25484
G1 X62.211 Y67.933 E14.341
G1 X62.337 Y66.948 E14.37403
G1 X62.508 Y65.977 E14.40682
G1 X62.854 Y64.756 E14.44903
G1 X63.103 Y64.044 E14.47412
G1 X63.435 Y63.213 E14.50388
G1 X64.413 Y61.03 E14.58344
G1 X65.392 Y58.675 E14.66827
G1 X66.29 Y56.323 E14.752
G1 X66.802 Y54.862 E14.80349
G1 X67.153 Y53.907 E14.83733
G1 X67.534 Y53.006 E14.86987
G1 X68.029 Y52.082 E14.90473
G1 X68.457 Y51.388 E14.93185
G1 X68.671 Y51.066 E14.94471
G1 X69.263 Y50.259 E14.978
G0 F6000 X69.561 Y50.526
G1 F1200 X70.348 Y49.646 E15.01727
G1 X70.816 Y49.18 E15.03923
G1 X71.483 Y48.571 E15.06927
G1 X72.633 Y47.732 E15.11662
G1 X73.213 Y47.367 E15.13941
G1 X74.034 Y46.9 E15.17083
G1 X75.159 Y46.405 E15.21171
G1 X75.827 Y46.163 E15.23534
G1 X76.192 Y46.043 E15.24812
G1 X77.061 Y45.798 E15.27815
G1 X78.331 Y45.577 E15.32102
G1 X79.006 Y45.502 E15.34361
G1 X80.038 Y45.439 E15.378
G1 X80.859 Y45.429 E15.40531
G1 X144.458 Y45.429 E17.52062
G1 X145.318 Y45.441 E17.54923
G1 X146.118 Y45.483 E17.57587
G1 X146.869 Y45.562 E17.60099
G1 X147.274 Y45.616 E17.61458
G1 X148.163 Y45.776 E17.64462
G1 X149.374 Y46.124 E17.68653
G1 X150 Y46.345 E17.70861
G1 X150.837 Y46.683 E17.73863
G1 X151.872 Y47.224 E17.77748
G1 X152.497 Y47.606 E17.80184
G1 X152.863 Y47.846 E17.8164
G1 X153.596 Y48.374 E17.84644
G1 X154.534 Y49.208 E17.88819
G1 X155.001 Y49.676 E17.91018
G1 X155.634 Y50.369 E17.9414
G1 X156.183 Y51.086 E17.97143
G1 X156.474 Y51.525 E17.98895
G1 X156.838 Y52.107 E18.01178
G1 X157.303 Y52.93 E18.04322
G1 X157.786 Y54.036 E18.08336
G1 X158.181 Y55.107 E18.12133
G1 X158.651 Y56.45 E18.16865
G1 X159.555 Y58.819 E18.25299
G1 X160.521 Y61.145 E18.33676
G1 X161.559 Y63.47 E18.42144
G1 X161.914 Y64.381 E18.45396
G1 X162.128 Y65.017 E18.47628
G1 X162.389 Y65.928 E18.5078
G1 X162.62 Y67.26 E18.55276
G1 X162.691 Y67.922 E18.57491
G1 X162.75 Y68.907 E18.60773
G1 X162.756 Y69.633 E18.63188
G1 X162.742 Y70.62 E18.66471
G1 X162.742 Y73.226 E18.75138
G1 X162.813 Y75.75 E18.83537
G1 X162.954 Y78.254 E18.91878
G1 X163.17 Y80.813 E19.0042
G1 X163.455 Y83.32 E19.08812
G1 X163.805 Y85.782 E19.17083
G1 X164.235 Y88.299 E19.25575
G1 X164.727 Y90.754 E19.33903
G1 X165.299 Y93.243 E19.42397
G1 X165.941 Y95.713 E19.50886
G1 X166.683 Y98.297 E19.59827
G1 X166.901 Y99.21 E19.62949
G1 X167.033 Y100.104 E19.65955
G1 X167.086 Y100.887 E19.68565
G1 X167.101 Y101.535 E19.70721
G1 X167.1 Y163.6 E21.7715
G1 X167.09 Y164.345 E21.79628
G1 X167.036 Y165.282 E21.8275
G1 X166.898 Y166.211 E21.85874
G1 X166.679 Y167.123 E21.88993
G1 X166.381 Y168.013 E21.92115
G1 X166.004 Y168.873 E21.95238
G1 X165.554 Y169.695 E21.98355
G1 X165.032 Y170.476 E22.01479
G1 X164.443 Y171.206 E22.04599
G1 X163.818 Y171.857 E22.07601
G1 X163.083 Y172.498 E22.10844
G1 X162.323 Y173.048 E22.13965
G1 X161.517 Y173.529 E22.17086
G1 X160.672 Y173.937 E22.20207
G1 X159.794 Y174.268 E22.23328
G1 X158.89 Y174.521 E22.26451
G1 X157.963 Y174.693 E22.29586
G1 X156.812 Y174.791 E22.33428
G1 X156.171 Y174.805 E22.35561
G1 X64.071 Y174.804 E25.41887
G1 X63.355 Y174.794 E25.44268
G1 X62.419 Y174.74 E25.47387
G1 X61.49 Y174.601 E25.50511
G1 X60.578 Y174.382 E25.53631
G1 X59.688 Y174.083 E25.56753
G1 X58.829 Y173.706 E25.59873
G1 X58.006 Y173.255 E25.62995
G1 X57.226 Y172.733 E25.66116
G1 X56.522 Y172.167 E25.69121
G1 X55.82 Y171.492 E25.7236
G1 X55.205 Y170.783 E25.75482
G1 X54.675 Y170.052 E25.78485
G1 X54.175 Y169.216 E25.81725
G1 X53.767 Y168.371 E25.84846
G1 X53.436 Y167.493 E25.87966
G1 X53.184 Y166.589 E25.91088
G1 X53.012 Y165.66 E25.9423
G1 X52.914 Y164.481 E25.98165
G1 X52.901 Y163.863 E26.00221
G1 X52.902 Y101.761 E28.06773
G1 X52.913 Y101.041 E28.09168
G1 X52.969 Y100.104 E28.1229
G1 X53.108 Y99.176 E28.15411
G1 X53.329 Y98.263 E28.18535
G1 X53.628 Y97.378 E28.21642
G1 X53.915 Y96.705 E28.24076
G1 X54.288 Y95.912 E28.26991
G1 X54.886 Y94.68 E28.31545
G1 X55.918 Y92.392 E28.39894
G1 X56.9 Y90.036 E28.48383
G1 X57.802 Y87.69 E28.56743
G1 X58.642 Y85.307 E28.65147
G1 X59.417 Y82.889 E28.73592
G1 X60.124 Y80.45 E28.82038
G1 X60.745 Y78.056 E28.90264
G1 X61.324 Y75.528 E28.9889
G1 X61.814 Y73.077 E29.07203
G1 X62.243 Y70.565 E29.15679
G1 X62.607 Y67.989 E29.24332
G1 X62.731 Y67.017 E29.27591
G1 X62.893 Y66.086 E29.30734
G1 X63.239 Y64.865 E29.34955
G1 X63.475 Y64.192 E29.37327
G1 X63.8 Y63.377 E29.40246
G1 X64.778 Y61.194 E29.48202
G1 X65.765 Y58.818 E29.56759
G1 X66.664 Y56.466 E29.65134
G1 X67.177 Y55 E29.703
G1 X67.522 Y54.062 E29.73624
G1 X67.887 Y53.195 E29.76753
G1 X68.382 Y52.271 E29.80239
G1 X68.791 Y51.609 E29.82827
G1 X68.994 Y51.302 E29.84051
G1 X69.561 Y50.526 E29.87248
G0 F6000 X69.859 Y50.793
G1 F1200 X70.631 Y49.929 E29.91102
G1 X71.086 Y49.475 E29.93239
G1 X71.753 Y48.866 E29.96243
G1 X72.847 Y48.07 E30.00743
G1 X73.411 Y47.714 E30.02962
G1 X74.195 Y47.266 E30.05965
G1 X75.295 Y46.781 E30.09963
G1 X75.953 Y46.543 E30.12291
G1 X76.301 Y46.428 E30.1351
G1 X77.17 Y46.183 E30.16513
G1 X78.375 Y45.975 E30.2058
G1 X79.05 Y45.9 E30.22839
G1 X80.043 Y45.839 E30.26148
G1 X80.864 Y45.829 E30.28878
G1 X144.453 Y45.829 E32.40376
G1 X145.297 Y45.84 E32.43184
G1 X146.077 Y45.881 E32.45782
G1 X146.816 Y45.958 E32.48253
G1 X147.203 Y46.01 E32.49552
G1 X148.092 Y46.17 E32.52556
G1 X149.241 Y46.501 E32.56533
G1 X149.85 Y46.716 E32.58681
G1 X150.687 Y47.054 E32.61683
G1 X151.663 Y47.565 E32.65347
G1 X152.278 Y47.941 E32.67745
G1 X152.629 Y48.171 E32.69141
G1 X153.362 Y48.699 E32.72145
G1 X154.251 Y49.491 E32.76105
G1 X154.706 Y49.946 E32.78246
G1 X155.316 Y50.612 E32.81249
G1 X155.865 Y51.329 E32.84253
G1 X156.135 Y51.738 E32.85883
G1 X156.49 Y52.304 E32.88105
G1 X156.936 Y53.09 E32.91111
G1 X157.419 Y54.196 E32.95125
G1 X157.803 Y55.239 E32.98822
G1 X158.277 Y56.593 E33.03593
G1 X159.182 Y58.962 E33.12028
G1 X160.156 Y61.308 E33.20476
G1 X161.186 Y63.616 E33.28883
G1 X161.535 Y64.509 E33.32071
G1 X161.744 Y65.128 E33.34244
G1 X161.995 Y65.996 E33.3725
G1 X162.222 Y67.303 E33.41662
G1 X162.293 Y67.965 E33.43876
G1 X162.35 Y68.91 E33.47025
G1 X162.356 Y69.627 E33.4941
G1 X162.342 Y70.614 E33.52693
G1 X162.342 Y73.226 E33.61381
G1 X162.413 Y75.761 E33.69815
G1 X162.555 Y78.288 E33.78233
G1 X162.772 Y80.847 E33.86775
G1 X163.059 Y83.376 E33.95241
G1 X163.411 Y85.849 E34.03549
G1 X163.843 Y88.378 E34.12082
G1 X164.337 Y90.844 E34.20447
G1 X164.912 Y93.344 E34.28979
G1 X165.554 Y95.814 E34.37467
G1 X166.294 Y98.39 E34.46382
G1 X166.505 Y99.268 E34.49385
G1 X166.637 Y100.162 E34.52391
G1 X166.686 Y100.896 E34.54838
G1 X166.701 Y101.535 E34.56963
G1 X166.7 Y163.595 E36.63376
G1 X166.691 Y164.322 E36.65794
G1 X166.64 Y165.224 E36.68799
G1 X166.509 Y166.118 E36.71804
G1 X166.3 Y166.996 E36.74806
G1 X166.014 Y167.853 E36.77811
G1 X165.653 Y168.681 E36.80815
G1 X165.221 Y169.473 E36.83816
G1 X164.72 Y170.225 E36.86821
G1 X164.154 Y170.929 E36.89826
G1 X163.529 Y171.58 E36.92827
G1 X162.848 Y172.174 E36.95833
G1 X162.117 Y172.705 E36.98838
G1 X161.343 Y173.169 E37.01839
G1 X160.53 Y173.563 E37.04844
G1 X159.686 Y173.883 E37.07846
G1 X158.816 Y174.128 E37.10852
G1 X157.929 Y174.294 E37.13854
G1 X156.778 Y174.392 E37.17696
G1 X156.171 Y174.405 E37.19715
G1 X64.076 Y174.404 E40.26025
G1 X63.378 Y174.395 E40.28346
G1 X62.477 Y174.344 E40.31348
G1 X61.583 Y174.212 E40.34354
G1 X60.705 Y174.003 E40.37355
G1 X59.848 Y173.716 E40.40361
G1 X59.021 Y173.355 E40.43363
G1 X58.228 Y172.922 E40.46368
G1 X57.477 Y172.421 E40.4937
G1 X56.773 Y171.855 E40.52375
G1 X56.122 Y171.229 E40.55379
G1 X55.529 Y170.548 E40.58382
G1 X54.999 Y169.817 E40.61385
G1 X54.535 Y169.042 E40.64389
G1 X54.141 Y168.229 E40.67394
G1 X53.821 Y167.385 E40.70397
G1 X53.577 Y166.515 E40.73402
G1 X53.411 Y165.627 E40.76406
G1 X53.314 Y164.472 E40.80262
G1 X53.301 Y163.863 E40.82288
G1 X53.302 Y101.767 E42.8882
G1 X53.312 Y101.064 E42.91158
G1 X53.365 Y100.162 E42.94163
G1 X53.497 Y99.269 E42.97166
G1 X53.708 Y98.391 E43.00169
G1 X53.996 Y97.535 E43.03173
G1 X54.277 Y96.875 E43.05559
G1 X54.648 Y96.087 E43.08456
G1 X55.246 Y94.855 E43.13011
G1 X56.283 Y92.556 E43.21399
G1 X57.269 Y90.19 E43.29924
G1 X58.175 Y87.834 E43.3832
G1 X59.019 Y85.44 E43.46763
G1 X59.798 Y83.011 E43.55247
G1 X60.508 Y80.561 E43.63731
G1 X61.132 Y78.156 E43.71995
G1 X61.714 Y75.617 E43.80658
G1 X62.206 Y73.155 E43.89009
G1 X62.637 Y70.632 E43.97522
G1 X63.003 Y68.045 E44.06212
G1 X63.125 Y67.085 E44.09431
G1 X63.278 Y66.195 E44.12434
G1 X63.617 Y64.997 E44.16575
G1 X63.847 Y64.34 E44.18891
G1 X64.165 Y63.541 E44.21751
G1 X65.143 Y61.358 E44.29707
G1 X66.138 Y58.961 E44.38339
G1 X67.037 Y56.609 E44.46714
G1 X67.553 Y55.138 E44.51899
G1 X67.891 Y54.217 E44.55162
G1 X68.24 Y53.384 E44.58166
G1 X68.735 Y52.46 E44.61652
G1 X69.125 Y51.83 E44.64116
G1 X69.328 Y51.523 E44.65341
G1 X69.859 Y50.793 E44.68343
G1 F1500 E38.18343
;MESH:???????????????-Body.stl
G0 F6000 X75.232 Y65.492
G0 X76.384 Y66.762
;TYPE:WALL-INNER
G1 F1500 E44.68343
G1 F722.9 X76.909 Y66.762 E44.71242
G1 F711.1 X77.087 Y66.772 E44.72242
G0 F6000 X77.793 Y67.032
G0 X78.526 Y67.877
G0 X78.867 Y68.371
G0 X79.08 Y68.933
G0 X79.153 Y69.529
G0 X79.08 Y70.125
G0 X78.867 Y70.687
G0 X77.793 Y72.026
G0 X77.036 Y72.292
G1 F715.4 X76.411 Y72.297 E44.75729
G1 F937.5 X76.053 Y72.074 E44.77525
G1 F1297.3 X75.736 Y72.004 E44.78524
G1 F1230.8 X75.214 Y71.762 E44.8039
G1 F1162.2 X74.956 Y71.561 E44.81513
G1 F1121.5 X74.653 Y71.283 E44.82976
G1 F1156.6 X74.321 Y70.777 E44.85065
G1 F1206 X74.196 Y70.45 E44.86223
G1 F1307.9 X74.1 Y70.136 E44.87225
G1 F1415.9 X74.043 Y69.527 E44.88949
G1 F1387.3 X74.113 Y68.83 E44.90965
G1 F1276.6 X74.326 Y68.261 E44.92864
G1 F1165 X74.656 Y67.773 E44.94882
G1 F1118.9 X74.955 Y67.498 E44.96331
G1 F1156.6 X75.212 Y67.298 E44.97455
G1 F1218.3 X75.725 Y67.054 E44.99316
G1 F1280 X76.032 Y66.989 E45.00295
G1 F1098.4 X76.365 Y66.756 E45.01771
G1 X75.969 Y66.635 E45.03276
G1 F1290.3 X75.63 Y66.685 E45.04336
G1 F1191.1 X75.082 Y66.895 E45.06303
G1 F1124.1 X74.677 Y67.168 E45.08037
G1 F1121.5 X74.298 Y67.544 E45.09937
G1 F1145.6 X74.01 Y67.993 E45.11795
G1 F1194 X73.82 Y68.499 E45.13602
G1 F1297.3 X73.736 Y69.07 E45.15377
G1 F1420.1 X73.723 Y69.529 E45.16668
G1 F1379.3 X73.74 Y70.105 E45.18335
G1 F1259.8 X73.821 Y70.562 E45.19806
G1 F1209.1 X73.988 Y71.031 E45.21449
G1 F1159.4 X74.297 Y71.513 E45.2342
G1 F1124.1 X74.678 Y71.89 E45.25323
G1 F1126.8 X75.08 Y72.162 E45.27042
G1 F1194 X75.63 Y72.373 E45.29012
G1 F1297.3 X75.99 Y72.425 E45.30131
G1 F937.5 X76.411 Y72.297 E45.32004
G0 F6000 X77.588 Y72.601
G0 X77.982 Y80.525
G0 X78.146 Y80.995
G0 X78.414 Y81.419
G0 X78.77 Y81.775
G0 X79.192 Y82.041
G0 X79.668 Y82.206
G0 X90.56 Y82.429
G1 F1200 X90.56 Y73.008 E45.63338
G1 X90.613 Y72.78 E45.64117
G1 X90.716 Y72.624 E45.64739
G1 X90.925 Y72.476 E45.6559
G1 X91.083 Y72.429 E45.66139
G1 X139.211 Y72.431 E47.26213
G1 X139.36 Y72.462 E47.26719
G1 X139.597 Y72.617 E47.27661
G1 X139.722 Y72.815 E47.2844
G1 X139.761 Y72.969 E47.28968
G1 X139.76 Y82.429 E47.60432
G1 X145.127 Y82.429 E47.78283
G1 X145.69 Y82.364 E47.80168
G1 X146.199 Y82.186 E47.81962
G1 X146.653 Y81.901 E47.83744
G1 X147.033 Y81.521 E47.85532
G1 X147.319 Y81.066 E47.87319
G1 X147.496 Y80.561 E47.89099
G1 X147.56 Y79.996 E47.9099
G1 X147.565 Y72.945 E48.14442
G1 X147.604 Y72.802 E48.14935
G1 F1048 X147.756 Y72.576 E48.15972
G1 F860.2 X148.216 Y72.276 E48.1852
G1 F960 X147.789 Y72.028 E48.20573
G1 F1200 X147.654 Y71.978 E48.21052
G1 X147.15 Y71.715 E48.22943
G1 X146.663 Y71.27 E48.25137
G1 X146.311 Y70.763 E48.2719
G1 X146.088 Y70.163 E48.29319
G1 X146.011 Y69.524 E48.3146
G1 X146.09 Y68.886 E48.33598
